X: 100341
T: GLEN FARNETE REEL
R: reel
B: K\"ohler's Violin Repository, v.3, 1885 p.327 #1
F: http://www.archive.org/details/klersviolinrepos03rugg
Z: 2012 John Chambers <jc:trillian.mit.edu>
M: C|
L: 1/8
K: F
uA |\
FAcA f2(fc) | f2(af) egga | fcAF dBAG | AcGc AFF :|
uA |\
(FA)cA (fe)fc | (AF)cA (BG)GA | (FA)cA (fe)fc | dfcf AFFA |
(FA)cA (fe)fc | (AF)cA (BG)GA | (FA)cA (Bc)de | (fc)dB "Fine."(BF)F "^D.C."|]

%%sep 2 1 500

